X:1
T:Title
%%score ( 1 2 ) ( 3 4 )
L:1/8
Q:1/4=150
M:4/2
K:Eb
V:1 treble nm="Choir Aahs, Staff"
V:2 treble 
V:3 bass nm="Choir Aahs, Staff-1"
V:4 bass 
V:1
 [EG]4 [Ec]4 [D=B]4 [Ec]4 | [Fd]4 [Ge]4 [EB]4 [Gc]4 | A2- [EA]2 [DG]12 | [DG]4 [GB]4 [F=A]4 G4- | %4
w: By~Orlando~Gibbons,~1623 * * *||||
 G2 F2 [CE]4 C4 [CF]4 | [CE]4 [=B,D]12 | [Gd]4 [G=B]4 G4 [Gc]4 | [F=B]4 [Ec]4 [EG]4 [Ec]4 | %8
w: ||||
 [Fd]4 [Ge]12 | G4 [G=A]4 [F=B]4 [Ec]4 | z4 .G4 e4 d4 | [Dd]4 [Ec]12 |] %12
w: ||||
V:2
 x16 | x16 | .F4 z4 z8 | z8 z4 E4 | D4 z4 z8 | x16 | x16 | x16 | x16 | x16 | %10
 [Ad]4 =B2- [FB]2 E2 F2 G2 F2 | x16 |] %12
V:3
 [C,C]4 [C,G,]4 [G,,G,]4 [C,G,]4 | z8 .E4 z4 | [F,C]4 [G,=B,]12 | z8 .D4 z4 | %4
 [B,,B,]4 [C,G,]4 [C,E,]4 [F,A,]4 | [C,G,]4 [G,,G,]12 | z4 D4 =B,4 z4 | %7
 [D,D]4 [C,G,]4 C2 B,2 [A,C]2 [G,B,]2 | [F,A,]4 [E,B,]12 | [E,C]4 [F,C]4 G,4 [A,C]4 | %10
 [F,F]4 [G,D]4 [C,C]4 [G,C]4 | [G,,=B,]4 [C,C]12 |] %12
V:4
 x16 | [B,,B,]4 [E,B,]4 G,2- [G,D]2 [E,C]4 | x16 | [G,,B,]4 [G,D]4 D,2- [D,C]2 [E,B,]4 | x16 | %5
 x16 | [G,,=B,]4 G,4- G,3/2 z/ F,2 [E,C]4 | x16 | x16 | x16 | x16 | x16 |] %12

